packages/assets/static/images/icons/upload-simple.svg

<svg width="24" height="24" viewBox="0 0 24 24" xmlns="http://www.w3.org/2000/svg">
<path d="M21 13.5001V19.5001C21 19.699 20.921 19.8898 20.7803 20.0304C20.6397 20.1711 20.4489 20.2501 20.25 20.2501H3.75C3.55109 20.2501 3.36032 20.1711 3.21967 20.0304C3.07902 19.8898 3 19.699 3 19.5001V13.5001C3 13.3012 3.07902 13.1104 3.21967 12.9698C3.36032 12.8291 3.55109 12.7501 3.75 12.7501C3.94891 12.7501 4.13968 12.8291 4.28033 12.9698C4.42098 13.1104 4.5 13.3012 4.5 13.5001V18.7501H19.5V13.5001C19.5 13.3012 19.579 13.1104 19.7197 12.9698C19.8603 12.8291 20.0511 12.7501 20.25 12.7501C20.4489 12.7501 20.6397 12.8291 20.7803 12.9698C20.921 13.1104 21 13.3012 21 13.5001ZM8.78063 7.28073L11.25 4.81041V13.5001C11.25 13.699 11.329 13.8898 11.4697 14.0304C11.6103 14.1711 11.8011 14.2501 12 14.2501C12.1989 14.2501 12.3897 14.1711 12.5303 14.0304C12.671 13.8898 12.75 13.699 12.75 13.5001V4.81041L15.2194 7.28073C15.3601 7.42146 15.551 7.50052 15.75 7.50052C15.949 7.50052 16.1399 7.42146 16.2806 7.28073C16.4214 7.14 16.5004 6.94912 16.5004 6.7501C16.5004 6.55108 16.4214 6.36021 16.2806 6.21948L12.5306 2.46948C12.461 2.39974 12.3783 2.34442 12.2872 2.30668C12.1962 2.26894 12.0986 2.24951 12 2.24951C11.9014 2.24951 11.8038 2.26894 11.7128 2.30668C11.6217 2.34442 11.539 2.39974 11.4694 2.46948L7.71937 6.21948C7.57864 6.36021 7.49958 6.55108 7.49958 6.7501C7.49958 6.94912 7.57864 7.14 7.71937 7.28073C7.86011 7.42146 8.05098 7.50052 8.25 7.50052C8.44902 7.50052 8.63989 7.42146 8.78063 7.28073Z"/>
</svg>

<svg viewBox="0 0 24 24" xmlns="http://www.w3.org/2000/svg" aria-hidden="true" fill="currentColor"><path d="M21 13.5v6a.75.75 0 0 1-.75.75H3.75A.75.75 0 0 1 3 19.5v-6a.75.75 0 1 1 1.5 0v5.25h15V13.5a.75.75 0 1 1 1.5 0M8.78 7.28l2.47-2.47v8.69a.75.75 0 1 0 1.5 0V4.81l2.47 2.47a.75.75 0 1 0 1.06-1.06l-3.75-3.75a.75.75 0 0 0-1.06 0L7.72 6.22a.75.75 0 1 0 1.06 1.06"/></svg>
